!! 00000] TT[WS
!!!OTL: Li hun
!!!ARE: Asia, China,ÿShanxi Dingxiang
!! Ethnic Group: Han
!! WI, 92 (2)
!!!SCT: J0110
!!!YEM: Copyright 1995, estate of Helmut Schaffrath.
**kern
*ICvox
*Ivox
*M2/4
*k[f#]
*G:
{8.ee
16b
16b
16f#
16a
16b
=1
8.ee
16b
16b
16f#
16a
16b
=2
16dd
16ee
16b
16a
16b
16a
16e
16g
=3
2a}
=4
{16dd
16ee
16b
16a
16b
16a
16e
16g
=5
2a}
=6
{8ee
16b
16dd
8ee
16gg
16b
=7
16a
16a
16b
16a
4g
=8
8e
16e
16g
4a
=9
16b
16dd
16b
16a
16a
16e
16g
16a
=10
2d}
==
!!!AGN: Xiaodiao. Qingge, Aisu
!!!ONB: ESAC (Essen Associative Code) Database: CHINA
!!!AMT: simple duple
!!!AIN: vox
!!!EED: Helmut Schaffrath
!!!EEV: 1.0
*-
